assets/icons/24px/stroke/document-photo-24px.svg

<svg width="24" height="24" viewBox="0 0 24 24" fill="none" xmlns="http://www.w3.org/2000/svg">
<g clip-path="url(#clip0_878_23984)">
<path fill-rule="evenodd" clip-rule="evenodd" d="M13.5908 4.06638C13.4579 4.01538 13.2989 4 12.4651 4H9C8.02893 4 7.40122 4.00212 6.93871 4.0643C6.50497 4.12262 6.36902 4.21677 6.2929 4.29289C6.21677 4.36902 6.12263 4.50496 6.06431 4.9387C6.00213 5.40121 6 6.02892 6 7V17C6 17.9711 6.00213 18.5988 6.06431 19.0613C6.12263 19.495 6.21677 19.631 6.2929 19.7071C6.36902 19.7832 6.50497 19.8774 6.93871 19.9357C7.40121 19.9979 8.02893 20 9 20H15C15.9711 20 16.5988 19.9979 17.0613 19.9357C17.495 19.8774 17.631 19.7832 17.7071 19.7071C17.7832 19.631 17.8774 19.495 17.9357 19.0613C17.9979 18.5988 18 17.9711 18 17V9.28145C18 8.31581 17.9798 8.13278 17.9135 7.98388C17.8472 7.83499 17.7246 7.69754 17.0069 7.05156L14.472 4.77012C13.8522 4.21234 13.7237 4.11737 13.5908 4.06638ZM12.5937 1.99988C13.2243 1.99897 13.7836 1.99817 14.3073 2.19914C14.831 2.4001 15.2463 2.77488 15.7144 3.19741C15.746 3.22591 15.7778 3.25463 15.8099 3.28353L18.3448 5.56498C18.3821 5.59852 18.4191 5.63174 18.4559 5.66471C18.9976 6.15061 19.4786 6.58212 19.7405 7.17021C20.0024 7.7583 20.0014 8.40451 20.0002 9.13218C20.0001 9.18156 20 9.23131 20 9.28145L20 17.0658C20.0001 17.9523 20.0001 18.7161 19.9179 19.3278C19.8297 19.9833 19.631 20.6117 19.1213 21.1213C18.6117 21.631 17.9833 21.8297 17.3278 21.9179C16.7161 22.0001 15.9523 22.0001 15.0658 22H8.9342C8.0477 22.0001 7.28388 22.0001 6.67221 21.9179C6.0167 21.8297 5.38835 21.631 4.87868 21.1213C4.36902 20.6117 4.17028 19.9833 4.08215 19.3278C3.99991 18.7161 3.99995 17.9523 4 17.0658L4 7C4 6.97798 4 6.95604 4 6.93417C3.99995 6.04768 3.99991 5.28387 4.08215 4.67221C4.17028 4.01669 4.36902 3.38834 4.87868 2.87868C5.38835 2.36902 6.0167 2.17027 6.67221 2.08214C7.28387 1.9999 8.04769 1.99995 8.93417 2C8.95604 2 8.97799 2 9 2H12.4651C12.5083 2 12.5511 1.99994 12.5937 1.99988Z" fill="white"/>
<path fill-rule="evenodd" clip-rule="evenodd" d="M12 5V3H14V5C14 5.97108 14.0021 6.59879 14.0643 7.0613C14.1226 7.49504 14.2168 7.63098 14.2929 7.70711C14.369 7.78323 14.505 7.87738 14.9387 7.93569C15.4012 7.99788 16.0289 8 17 8H19V10H17C16.978 10 16.956 10 16.9342 10C16.0477 10.0001 15.2839 10.0001 14.6722 9.91786C14.0167 9.82973 13.3883 9.63098 12.8787 9.12132C12.369 8.61166 12.1703 7.98331 12.0821 7.32779C11.9999 6.71613 12 5.95232 12 5.06583C12 5.04396 12 5.02202 12 5Z" fill="white"/>
<path fill-rule="evenodd" clip-rule="evenodd" d="M19.7599 16.1514C19.3955 16.5657 18.7598 16.61 18.3401 16.2502L17.6915 15.6942C16.9951 15.0973 16.5457 14.7148 16.1761 14.4732C15.8306 14.2475 15.6724 14.2257 15.5673 14.2297C15.4622 14.2337 15.3062 14.2674 14.9793 14.5186C14.6296 14.7875 14.2112 15.203 13.5633 15.8509L13.4142 16L14.2162 16.802C14.6067 17.1925 14.6026 17.8216 14.207 18.2071C13.8115 18.5925 13.1742 18.5885 12.7837 18.198L11.9449 17.3592C11.2926 16.7068 10.872 16.2891 10.52 16.0197C10.192 15.7685 10.0349 15.7355 9.92699 15.7323C9.81686 15.729 9.65915 15.753 9.32213 15.98C8.95882 16.2247 8.51964 16.6115 7.83618 17.2178C7.1185 17.8546 6.49483 18.4194 6.2162 18.6981C5.82571 19.0886 5.18848 19.0926 4.79292 18.7071C4.39735 18.3217 4.39324 17.6926 4.78373 17.3021C5.11293 16.9729 5.78479 16.3662 6.49072 15.7399L6.53882 15.6972C7.16017 15.1459 7.69961 14.6673 8.1878 14.3385C8.71482 13.9836 9.29135 13.7256 9.98712 13.7461C10.6851 13.7667 11.2474 14.0619 11.7536 14.4495C11.8234 14.5029 11.8941 14.5598 11.966 14.6198L12.1309 14.4549C12.1458 14.44 12.1607 14.4251 12.1756 14.4102C12.7659 13.8198 13.2765 13.3092 13.7426 12.9509C14.2433 12.566 14.7994 12.2703 15.49 12.2441C16.1806 12.2179 16.7581 12.4705 17.2872 12.8164C17.7798 13.1383 18.3286 13.6087 18.9631 14.1526L19.6598 14.7498C20.0795 15.1095 20.1243 15.7371 19.7599 16.1514Z" fill="white"/>
<path d="M10.5 9C10.5 9.82843 9.82843 10.5 9 10.5C8.17157 10.5 7.5 9.82843 7.5 9C7.5 8.17157 8.17157 7.5 9 7.5C9.82843 7.5 10.5 8.17157 10.5 9Z" fill="white"/>
</g>
<defs>
<clipPath id="clip0_878_23984">
<rect width="24" height="24" fill="white"/>
</clipPath>
</defs>
</svg>

<svg width="24" height="24" fill="none" xmlns="http://www.w3.org/2000/svg"><g clip-path="url(#clip0_878_23984)" fill="#fff"><path fill-rule="evenodd" clip-rule="evenodd" d="M13.59 4.066C13.459 4.016 13.3 4 12.466 4H9c-.971 0-1.599.002-2.061.064-.434.059-.57.153-.646.229-.076.076-.17.212-.229.646C6.002 5.4 6 6.029 6 7v10c0 .971.002 1.599.064 2.061.059.434.153.57.229.646.076.076.212.17.646.229C7.4 19.998 8.029 20 9 20h6c.971 0 1.599-.002 2.061-.064.434-.059.57-.153.646-.229.076-.076.17-.212.229-.646.062-.462.064-1.09.064-2.061V9.281c0-.965-.02-1.148-.087-1.297-.066-.149-.188-.286-.906-.932L14.472 4.77c-.62-.558-.748-.653-.881-.704zM12.595 2c.63-.001 1.19-.002 1.713.2.524.2.94.575 1.407.997l.096.087 2.535 2.281.11.1c.543.486 1.024.917 1.286 1.505.261.588.26 1.235.26 1.962l-.001.15v7.784c0 .886 0 1.65-.082 2.262-.088.655-.287 1.284-.797 1.793-.51.51-1.138.709-1.793.797-.612.082-1.376.082-2.262.082H8.934c-.886 0-1.65 0-2.262-.082-.655-.088-1.284-.287-1.793-.797-.51-.51-.709-1.138-.797-1.793C4 18.716 4 17.952 4 17.066V7v-.066c0-.886 0-1.65.082-2.262.088-.655.287-1.284.797-1.793.51-.51 1.138-.709 1.793-.797C7.284 2 8.048 2 8.934 2H12.594z"/><path fill-rule="evenodd" clip-rule="evenodd" d="M12 5V3h2v2c0 .971.002 1.599.064 2.061.059.434.153.57.229.646.076.076.212.17.646.229C15.4 7.998 16.029 8 17 8h2v2h-2.066c-.886 0-1.65 0-2.262-.082-.655-.088-1.284-.287-1.793-.797-.51-.51-.709-1.138-.797-1.793C12 6.716 12 5.952 12 5.066V5zm7.76 11.151c-.365.415-1 .459-1.42.1l-.648-.557c-.697-.597-1.146-.98-1.516-1.22-.345-.226-.504-.248-.609-.244-.105.004-.26.037-.588.289-.35.268-.768.684-1.416 1.332l-.149.149.802.802a.985.985 0 0 1-.009 1.405 1.016 1.016 0 0 1-1.423-.009l-.84-.839c-.651-.652-1.072-1.07-1.424-1.34-.328-.25-.485-.283-.593-.287-.11-.003-.268.021-.605.248-.363.245-.802.631-1.486 1.238a48.579 48.579 0 0 0-1.62 1.48c-.39.39-1.028.395-1.423.01a.985.985 0 0 1-.01-1.406c.33-.33 1.002-.936 1.708-1.562l.048-.043c.621-.551 1.16-1.03 1.649-1.358.527-.355 1.103-.613 1.8-.593.697.02 1.26.316 1.766.704.07.053.14.11.212.17l.165-.165.045-.045c.59-.59 1.1-1.1 1.567-1.46.5-.384 1.056-.68 1.747-.706.69-.026 1.268.226 1.797.572.493.322 1.042.793 1.676 1.337l.697.597c.42.36.464.987.1 1.401z"/><path d="M10.5 9a1.5 1.5 0 1 1-3 0 1.5 1.5 0 0 1 3 0z"/></g><defs><clipPath id="clip0_878_23984"><path fill="#fff" d="M0 0H24V24H0z"/></clipPath></defs></svg>
